X: 0804
T: DALKEITH FAIR, A REEL
B: Oliver Ditson "The Boston Collection of Instrumental Music" 1910 p.80 #4
F: http://conquest.imslp.info/files/imglnks/usimg/8/8f/IMSLP175643-PMLP309456-bostoncollection00bost_bw.pdf
%: 2012 John Chambers <jc:trillian.mit.edu>
M: 4/4
L: 1/8
K: G
|: g2dB g2dB | TA>GAB A/A/AA2 | g2dB g2dB | TA>GAB G/G/GG2 :|\
|: GBdB gBdB | GBdB A/A/AA2 | GBdB gBdB | TA>GAB G/G/GG2 :|
|: g2bg afge | dBgB A/A/AA2 | g2bg afge | dBcA G/G/GG2 :|\
|: GBdB gbgd | GBdB A/A/AA2 | GBdB gbgB | dBcA G/G/GG2 :|

%%sep 1 1 500
%%sep 1 1 500
